assets/img/braze_icons/log-out-04-alt.svg

<svg fill="none" height="24" viewBox="0 0 24 24" width="24" xmlns="http://www.w3.org/2000/svg"><g fill="#801ed7"><path d="m1 12c0-5.48694 4.29268-10 9.6667-10 1.2175 0 2.3831.23328 3.4563.65841.2796.11075.4194.16613.5537.28753.1083.09796.2146.2544.2657.39118.0635.1695.0635.34491.0635.69573v3.36715c0 .56005 0 .84008-.109 1.05399-.0959.18816-.2489.34114-.437.43702-.2139.10899-.494.10899-1.054.10899h-4.4059c-1.65685 0-3 1.3431-3 3s1.34315 3 3 3h4.4016c.5595 0 .8393 0 1.0531.1089.1881.0957.341.2485.437.4365.1091.2137.1093.4935.1099 1.053l.0033 3.3677c.0004.3511.0005.5267-.0628.6964-.0512.137-.1575.2936-.2659.3917-.1343.1215-.2743.177-.5542.2878-1.0729.4249-2.2381.658-3.4553.658-5.37402 0-9.6667-4.5131-9.6667-10z"/><path d="m17.2929 7.29289c.3905-.39052 1.0237-.39052 1.4142 0l4 4.00001c.3905.3905.3905 1.0237 0 1.4142l-4 4c-.3905.3905-1.0237.3905-1.4142 0s-.3905-1.0237 0-1.4142l2.2929-2.2929h-10.5858c-.55228 0-1-.4477-1-1s.44772-1 1-1h10.5858l-2.2929-2.29289c-.3905-.39053-.3905-1.02369 0-1.41422z"/></g></svg>

<svg width="24" height="24" viewBox="0 0 24 24" fill="none" xmlns="http://www.w3.org/2000/svg">
<path d="M1 12C1 6.51306 5.29268 2 10.6667 2C11.8842 2 13.0498 2.23328 14.123 2.65841C14.4026 2.76916 14.5424 2.82454 14.6767 2.94594C14.785 3.0439 14.8913 3.20034 14.9424 3.33712C15.0059 3.50662 15.0059 3.68203 15.0059 4.03285V7.4C15.0059 7.96005 15.0059 8.24008 14.8969 8.45399C14.801 8.64215 14.648 8.79513 14.4599 8.89101C14.246 9 13.9659 9 13.4059 9H9C7.34315 9 6 10.3431 6 12C6 13.6569 7.34315 15 9 15H13.4016C13.9611 15 14.2409 15 14.4547 15.1089C14.6428 15.2046 14.7957 15.3574 14.8917 15.5454C15.0008 15.7591 15.001 16.0389 15.0016 16.5984L15.0049 19.9661C15.0053 20.3172 15.0054 20.4928 14.9421 20.6625C14.8909 20.7995 14.7846 20.9561 14.6762 21.0542C14.5419 21.1757 14.4019 21.2312 14.122 21.342C13.0491 21.7669 11.8839 22 10.6667 22C5.29268 22 1 17.4869 1 12Z" fill="#801ED7"/>
<path d="M17.2929 7.29289C17.6834 6.90237 18.3166 6.90237 18.7071 7.29289L22.7071 11.2929C23.0976 11.6834 23.0976 12.3166 22.7071 12.7071L18.7071 16.7071C18.3166 17.0976 17.6834 17.0976 17.2929 16.7071C16.9024 16.3166 16.9024 15.6834 17.2929 15.2929L19.5858 13H9C8.44772 13 8 12.5523 8 12C8 11.4477 8.44772 11 9 11H19.5858L17.2929 8.70711C16.9024 8.31658 16.9024 7.68342 17.2929 7.29289Z" fill="#801ED7"/>
</svg>
